aces2-studio.ocio
ocio_profile_version: 2.4

environment:
  {}
search_path: ""
strictparsing: true
luma: [0.2126, 0.7152, 0.0722]
name: studio-config-v2.1.0_aces-v1.3_ocio-v2.3
description: |
  Academy Color Encoding System - Studio Config [COLORSPACES v2.1.0] [ACES v1.3] [OCIO v2.3]
  ------------------------------------------------------------------------------------------

  This "OpenColorIO" config is geared toward studios requiring a config that includes a wide variety of camera colorspaces, displays and looks.

roles:
  aces_interchange: ACES2065-1
  cie_xyz_d65_interchange: CIE-XYZ-D65
  color_picking: sRGB - Texture
  color_timing: ACEScct
  compositing_log: ACEScct
  data: Raw
  matte_paint: ACEScct
  scene_linear: ACEScg
  texture_paint: sRGB - Texture

file_rules:
  - !<Rule> {name: Default, colorspace: ACES2065-1}

shared_views:
  - !<View> {name: ACES 2.0 - SDR 100nit REC709, view_transform: ACES 2.0 - SDR 100nit REC709, display_colorspace: <USE_DISPLAY_NAME>}
  - !<View> {name: ACES 2.0 - SDR 100nit P3-D65, view_transform: ACES 2.0 - SDR 100nit P3-D65, display_colorspace: <USE_DISPLAY_NAME>}
  - !<View> {name: ACES 2.0 - HDR 108nit P3-D65, view_transform: ACES 2.0 - HDR 108nit P3-D65, display_colorspace: <USE_DISPLAY_NAME>}
  - !<View> {name: ACES 2.0 - HDR 300nit P3-D65, view_transform: ACES 2.0 - HDR 300nit P3-D65, display_colorspace: <USE_DISPLAY_NAME>}
  - !<View> {name: ACES 2.0 - HDR 500nit P3-D65, view_transform: ACES 2.0 - HDR 500nit P3-D65, display_colorspace: <USE_DISPLAY_NAME>}
  - !<View> {name: ACES 2.0 - HDR 1000nit P3-D65, view_transform: ACES 2.0 - HDR 1000nit P3-D65, display_colorspace: <USE_DISPLAY_NAME>}
  - !<View> {name: ACES 2.0 - HDR 2000nit P3-D65, view_transform: ACES 2.0 - HDR 2000nit P3-D65, display_colorspace: <USE_DISPLAY_NAME>}
  - !<View> {name: ACES 2.0 - HDR 4000nit P3-D65, view_transform: ACES 2.0 - HDR 4000nit P3-D65, display_colorspace: <USE_DISPLAY_NAME>}
  - !<View> {name: ACES 2.0 - HDR 500nit Rec2020, view_transform: ACES 2.0 - HDR 500nit Rec2020, display_colorspace: <USE_DISPLAY_NAME>}
  - !<View> {name: ACES 2.0 - HDR 1000nit Rec2020, view_transform: ACES 2.0 - HDR 1000nit Rec2020, display_colorspace: <USE_DISPLAY_NAME>}
  - !<View> {name: ACES 2.0 - HDR 2000nit Rec2020, view_transform: ACES 2.0 - HDR 2000nit Rec2020, display_colorspace: <USE_DISPLAY_NAME>}
  - !<View> {name: ACES 2.0 - HDR 4000nit Rec2020, view_transform: ACES 2.0 - HDR 4000nit Rec2020, display_colorspace: <USE_DISPLAY_NAME>}

  - !<View> {name: ACES 2.0 - SDR 100nit Rec709-D60 in P3-D65, view_transform: ACES 2.0 - SDR 100nit Rec709-D60 in P3-D65, display_colorspace: <USE_DISPLAY_NAME>}
  - !<View> {name: ACES 2.0 - SDR 100nit Rec709-D60 in Rec709-D65, view_transform: ACES 2.0 - SDR 100nit Rec709-D60 in Rec709-D65, display_colorspace: <USE_DISPLAY_NAME>}
  - !<View> {name: ACES 2.0 - SDR 100nit Rec709-D60 in Rec2020-D65, view_transform: ACES 2.0 - SDR 100nit Rec709-D60 in Rec2020-D65, display_colorspace: <USE_DISPLAY_NAME>}
  - !<View> {name: ACES 2.0 - SDR 100nit P3-D60 in P3-D65, view_transform:  ACES 2.0 - SDR 100nit P3-D60 in P3-D65, display_colorspace: <USE_DISPLAY_NAME>}
  - !<View> {name: ACES 2.0 - SDR 100nit P3-D60 in XYZ-E, view_transform: ACES 2.0 - SDR 100nit P3-D60 in XYZ-E, display_colorspace: <USE_DISPLAY_NAME>}
  - !<View> {name: ACES 2.0 - HDR 108nit P3-D60 in P3-D65, view_transform: ACES 2.0 - HDR 108nit P3-D60 in P3-D65, display_colorspace: <USE_DISPLAY_NAME>}
  - !<View> {name: ACES 2.0 - HDR 300nit P3-D60 in XYZ-E, view_transform: ACES 2.0 - HDR 300nit P3-D60 in XYZ-E, display_colorspace: <USE_DISPLAY_NAME>}
  - !<View> {name: ACES 2.0 - HDR 500nit P3-D60 in P3-D65, view_transform: ACES 2.0 - HDR 500nit P3-D60 in P3-D65, display_colorspace: <USE_DISPLAY_NAME>}
  - !<View> {name: ACES 2.0 - HDR 500nit P3-D60 in Rec2020-D65, view_transform: ACES 2.0 - HDR 500nit P3-D60 in Rec2020-D65, display_colorspace: <USE_DISPLAY_NAME>}
  - !<View> {name: ACES 2.0 - HDR 1000nit P3-D60 in P3-D65, view_transform: ACES 2.0 - HDR 1000nit P3-D60 in P3-D65, display_colorspace: <USE_DISPLAY_NAME>}
  - !<View> {name: ACES 2.0 - HDR 1000nit P3-D60 in Rec2020-D65, view_transform: ACES 2.0 - HDR 1000nit P3-D60 in Rec2020-D65, display_colorspace: <USE_DISPLAY_NAME>}
  - !<View> {name: ACES 2.0 - HDR 2000nit P3-D60 in P3-D65, view_transform: ACES 2.0 - HDR 2000nit P3-D60 in P3-D65, display_colorspace: <USE_DISPLAY_NAME>}
  - !<View> {name: ACES 2.0 - HDR 2000nit P3-D60 in Rec2020-D65, view_transform: ACES 2.0 - HDR 2000nit P3-D60 in Rec2020-D65, display_colorspace: <USE_DISPLAY_NAME>}
  - !<View> {name: ACES 2.0 - HDR 4000nit P3-D60 in P3-D65, view_transform: ACES 2.0 - HDR 4000nit P3-D60 in P3-D65, display_colorspace: <USE_DISPLAY_NAME>}
  - !<View> {name: ACES 2.0 - HDR 4000nit P3-D60 in Rec2020-D65, view_transform: ACES 2.0 - HDR 4000nit P3-D60 in Rec2020-D65, display_colorspace: <USE_DISPLAY_NAME>}
  - !<View> {name: ACES 2.0 - HDR 500nit Rec2020-D60 in Rec2020-D65, view_transform: ACES 2.0 - HDR 500nit Rec2020-D60 in Rec2020-D65, display_colorspace: <USE_DISPLAY_NAME>}
  - !<View> {name: ACES 2.0 - HDR 1000nit Rec2020-D60 in Rec2020-D65, view_transform: ACES 2.0 - HDR 1000nit Rec2020-D60 in Rec2020-D65, display_colorspace: <USE_DISPLAY_NAME>}
  - !<View> {name: ACES 2.0 - HDR 2000nit Rec2020-D60 in Rec2020-D65, view_transform: ACES 2.0 - HDR 2000nit Rec2020-D60 in Rec2020-D65, display_colorspace: <USE_DISPLAY_NAME>}
  - !<View> {name: ACES 2.0 - HDR 4000nit Rec2020-D60 in Rec2020-D65, view_transform: ACES 2.0 - HDR 4000nit Rec2020-D60 in Rec2020-D65, display_colorspace: <USE_DISPLAY_NAME>}

  - !<View> {name: ACES 2.0 - Test View, view_transform: ACES 2.0 - Test View, display_colorspace: <USE_DISPLAY_NAME>}

  - !<View> {name: ACES 1.0 - SDR Video, view_transform: ACES 1.0 - SDR Video, display_colorspace: <USE_DISPLAY_NAME>}
  - !<View> {name: ACES 1.0 - SDR Video (D60 sim on D65), view_transform: ACES 1.0 - SDR Video (D60 sim on D65), display_colorspace: <USE_DISPLAY_NAME>}
  - !<View> {name: ACES 1.1 - SDR Video (P3 lim), view_transform: ACES 1.1 - SDR Video (P3 lim), display_colorspace: <USE_DISPLAY_NAME>}
  - !<View> {name: ACES 1.1 - SDR Video (Rec.709 lim), view_transform: ACES 1.1 - SDR Video (Rec.709 lim), display_colorspace: <USE_DISPLAY_NAME>}
  - !<View> {name: ACES 1.1 - HDR Video (1000 nits & Rec.2020 lim), view_transform: ACES 1.1 - HDR Video (1000 nits & Rec.2020 lim), display_colorspace: <USE_DISPLAY_NAME>}
  - !<View> {name: ACES 1.1 - HDR Video (2000 nits & Rec.2020 lim), view_transform: ACES 1.1 - HDR Video (2000 nits & Rec.2020 lim), display_colorspace: <USE_DISPLAY_NAME>}
  - !<View> {name: ACES 1.1 - HDR Video (4000 nits & Rec.2020 lim), view_transform: ACES 1.1 - HDR Video (4000 nits & Rec.2020 lim), display_colorspace: <USE_DISPLAY_NAME>}
  - !<View> {name: ACES 1.1 - HDR Video (1000 nits & P3 lim), view_transform: ACES 1.1 - HDR Video (1000 nits & P3 lim), display_colorspace: <USE_DISPLAY_NAME>}
  - !<View> {name: ACES 1.1 - HDR Video (2000 nits & P3 lim), view_transform: ACES 1.1 - HDR Video (2000 nits & P3 lim), display_colorspace: <USE_DISPLAY_NAME>}
  - !<View> {name: ACES 1.1 - HDR Video (4000 nits & P3 lim), view_transform: ACES 1.1 - HDR Video (4000 nits & P3 lim), display_colorspace: <USE_DISPLAY_NAME>}
  - !<View> {name: ACES 1.0 - SDR Cinema, view_transform: ACES 1.0 - SDR Cinema, display_colorspace: <USE_DISPLAY_NAME>}
  - !<View> {name: ACES 1.1 - SDR Cinema (Rec.709 lim), view_transform: ACES 1.1 - SDR Cinema (Rec.709 lim), display_colorspace: <USE_DISPLAY_NAME>}
  - !<View> {name: ACES 1.0 - SDR Cinema (D60 sim on DCI), view_transform: ACES 1.0 - SDR Cinema (D60 sim on DCI), display_colorspace: <USE_DISPLAY_NAME>}
  - !<View> {name: ACES 1.1 - SDR Cinema (D60 sim on D65), view_transform: ACES 1.1 - SDR Cinema (D60 sim on D65), display_colorspace: <USE_DISPLAY_NAME>}
  - !<View> {name: ACES 1.1 - SDR Cinema (D65 sim on DCI), view_transform: ACES 1.1 - SDR Cinema (D65 sim on DCI), display_colorspace: <USE_DISPLAY_NAME>}
  - !<View> {name: ACES 1.1 - HDR Cinema (108 nits & P3 lim), view_transform: ACES 1.1 - HDR Cinema (108 nits & P3 lim), display_colorspace: <USE_DISPLAY_NAME>}

  - !<View> {name: Un-tone-mapped, view_transform: Un-tone-mapped, display_colorspace: <USE_DISPLAY_NAME>}

displays:
  sRGB - Display:
    - !<View> {name: Raw, colorspace: Raw}
    - !<Views> [ACES 2.0 - Test View, ACES 2.0 - SDR 100nit Rec709-D60 in Rec709-D65, ACES 2.0 - SDR 100nit REC709, ACES 1.0 - SDR Video, ACES 1.0 - SDR Video (D60 sim on D65), Un-tone-mapped]
  sRGB G22 - Display:
    - !<View> {name: Raw, colorspace: Raw}
    - !<Views> [ACES 2.0 - SDR 100nit Rec709-D60 in Rec709-D65, ACES 2.0 - SDR 100nit REC709, ACES 1.0 - SDR Video, ACES 1.0 - SDR Video (D60 sim on D65), Un-tone-mapped]
  Display P3 - Display:
    - !<View> {name: Raw, colorspace: Raw}
    - !<Views> [ACES 2.0 - HDR 1000nit P3-D60 in P3-D65, ACES 2.0 - SDR 100nit P3-D60 in P3-D65, ACES 2.0 - HDR 1000nit P3-D65, ACES 2.0 - SDR 100nit P3-D65, ACES 1.0 - SDR Video, ACES 1.0 - SDR Video (D60 sim on D65), Un-tone-mapped]
  Display P3 G22 - Display:
    - !<View> {name: Raw, colorspace: Raw}
    - !<Views> [ACES 2.0 - SDR 100nit P3-D60 in P3-D65, ACES 2.0 - SDR 100nit P3-D65, ACES 1.0 - SDR Video, ACES 1.0 - SDR Video (D60 sim on D65), Un-tone-mapped]
  Rec.1886 Rec.709 - Display:
    - !<View> {name: Raw, colorspace: Raw}
    - !<Views> [ACES 2.0 - SDR 100nit Rec709-D60 in Rec709-D65, ACES 2.0 - SDR 100nit REC709, ACES 1.0 - SDR Video, ACES 1.0 - SDR Video (D60 sim on D65), Un-tone-mapped]
  Rec.1886 Rec.2020 - Display:
    - !<View> {name: Raw, colorspace: Raw}
    - !<Views> [ACES 1.0 - SDR Video, ACES 1.1 - SDR Video (P3 lim), ACES 1.1 - SDR Video (Rec.709 lim), Un-tone-mapped]
  Rec.2100-HLG - Display:
    - !<View> {name: Raw, colorspace: Raw}
    - !<Views> [ACES 2.0 - HDR 1000nit P3-D65, ACES 1.1 - HDR Video (1000 nits & Rec.2020 lim), Un-tone-mapped]
  Rec.2100-PQ - Display:
    - !<View> {name: Raw, colorspace: Raw}
    - !<Views> [ACES 2.0 - HDR 4000nit Rec2020-D60 in Rec2020-D65, ACES 2.0 - HDR 2000nit Rec2020-D60 in Rec2020-D65, ACES 2.0 - HDR 1000nit Rec2020-D60 in Rec2020-D65, ACES 2.0 - HDR 500nit Rec2020-D60 in Rec2020-D65, ACES 2.0 - HDR 4000nit P3-D60 in Rec2020-D65, ACES 2.0 - HDR 2000nit P3-D60 in Rec2020-D65, ACES 2.0 - HDR 1000nit P3-D60 in Rec2020-D65, ACES 2.0 - HDR 500nit P3-D60 in Rec2020-D65, ACES 2.0 - SDR 100nit Rec709-D60 in Rec2020-D65, ACES 2.0 - HDR 4000nit Rec2020, ACES 2.0 - HDR 2000nit Rec2020, ACES 2.0 - HDR 1000nit Rec2020, ACES 2.0 - HDR 500nit Rec2020, ACES 2.0 - HDR 4000nit P3-D65, ACES 2.0 - HDR 2000nit P3-D65, ACES 2.0 - HDR 1000nit P3-D65, ACES 2.0 - HDR 500nit P3-D65, ACES 2.0 - SDR 100nit REC709, ACES 1.1 - HDR Video (1000 nits & Rec.2020 lim), ACES 1.1 - HDR Video (2000 nits & Rec.2020 lim), ACES 1.1 - HDR Video (4000 nits & Rec.2020 lim), Un-tone-mapped]
  ST2084-P3-D65 - Display:
    - !<View> {name: Raw, colorspace: Raw}
    - !<Views> [ACES 2.0 - HDR 4000nit P3-D60 in P3-D65, ACES 2.0 - HDR 2000nit P3-D60 in P3-D65, ACES 2.0 - HDR 1000nit P3-D60 in P3-D65, ACES 2.0 - HDR 500nit P3-D60 in P3-D65, ACES 2.0 - HDR 108nit P3-D60 in P3-D65, ACES 2.0 - HDR 4000nit P3-D65, ACES 2.0 - HDR 2000nit P3-D65, ACES 2.0 - HDR 1000nit P3-D65, ACES 2.0 - HDR 500nit P3-D65, ACES 2.0 - HDR 108nit P3-D65, ACES 1.1 - HDR Video (1000 nits & P3 lim), ACES 1.1 - HDR Video (2000 nits & P3 lim), ACES 1.1 - HDR Video (4000 nits & P3 lim), ACES 1.1 - HDR Cinema (108 nits & P3 lim), Un-tone-mapped]
  P3-D60 - Display:
    - !<View> {name: Raw, colorspace: Raw}
    - !<Views> [ACES 1.0 - SDR Cinema, Un-tone-mapped]
  P3-D65 - Display:
    - !<View> {name: Raw, colorspace: Raw}
    - !<Views> [ACES 2.0 - SDR 100nit P3-D60 in P3-D65, ACES 2.0 - SDR 100nit Rec709-D60 in P3-D65, ACES 2.0 - SDR 100nit P3-D65, ACES 2.0 - SDR 100nit REC709, ACES 1.0 - SDR Cinema, ACES 1.1 - SDR Cinema (Rec.709 lim), ACES 1.1 - SDR Cinema (D60 sim on D65), Un-tone-mapped]
  P3-DCI - Display:
    - !<View> {name: Raw, colorspace: Raw}
    - !<Views> [ACES 1.0 - SDR Cinema (D60 sim on DCI), ACES 1.1 - SDR Cinema (D65 sim on DCI), Un-tone-mapped]
  DCDM - Display:
    - !<View> {name: Raw, colorspace: Raw}
    - !<Views> [ACES 2.0 - SDR 100nit P3-D60 in XYZ-E, ACES 2.0 - SDR 100nit P3-D65, Un-tone-mapped]
  DCDM HDR - Display:
    - !<View> {name: Raw, colorspace: Raw}
    - !<Views> [ACES 2.0 - HDR 300nit P3-D60 in XYZ-E, ACES 2.0 - HDR 300nit P3-D65]

active_displays: [
  sRGB - Display,
  sRGB G22 - Display,
  Display P3 - Display,
  Display P3 G22 - Display,
  Rec.1886 Rec.709 - Display,
  Rec.1886 Rec.2020 - Display,
  Rec.2100-HLG - Display,
  Rec.2100-PQ - Display,
  ST2084-P3-D65 - Display,
  P3-D60 - Display,
  P3-D65 - Display,
  P3-DCI - Display,
  DCDM - Display,
  DCDM HDR - Display
]

active_views: [
  ACES 2.0 - SDR 100nit REC709,
  ACES 2.0 - SDR 100nit P3-D65,
  ACES 2.0 - HDR 108nit P3-D65,
  ACES 2.0 - HDR 300nit P3-D65,
  ACES 2.0 - HDR 500nit P3-D65,
  ACES 2.0 - HDR 1000nit P3-D65,
  ACES 2.0 - HDR 2000nit P3-D65,
  ACES 2.0 - HDR 4000nit P3-D65,
  ACES 2.0 - HDR 500nit Rec2020,
  ACES 2.0 - HDR 1000nit Rec2020,
  ACES 2.0 - HDR 2000nit Rec2020,
  ACES 2.0 - HDR 4000nit Rec2020,

  ACES 2.0 - SDR 100nit Rec709-D60 in P3-D65,
  ACES 2.0 - SDR 100nit Rec709-D60 in Rec709-D65,
  ACES 2.0 - SDR 100nit Rec709-D60 in Rec2020-D65,
  ACES 2.0 - SDR 100nit P3-D60 in P3-D65,
  ACES 2.0 - SDR 100nit P3-D60 in XYZ-E,
  ACES 2.0 - HDR 108nit P3-D60 in P3-D65,
  ACES 2.0 - HDR 300nit P3-D60 in XYZ-E,
  ACES 2.0 - HDR 500nit P3-D60 in P3-D65,
  ACES 2.0 - HDR 500nit P3-D60 in Rec2020-D65,
  ACES 2.0 - HDR 1000nit P3-D60 in P3-D65,
  ACES 2.0 - HDR 1000nit P3-D60 in Rec2020-D65,
  ACES 2.0 - HDR 2000nit P3-D60 in P3-D65,
  ACES 2.0 - HDR 2000nit P3-D60 in Rec2020-D65,
  ACES 2.0 - HDR 4000nit P3-D60 in P3-D65,
  ACES 2.0 - HDR 4000nit P3-D60 in Rec2020-D65,
  ACES 2.0 - HDR 500nit Rec2020-D60 in Rec2020-D65,
  ACES 2.0 - HDR 1000nit Rec2020-D60 in Rec2020-D65,
  ACES 2.0 - HDR 2000nit Rec2020-D60 in Rec2020-D65,
  ACES 2.0 - HDR 4000nit Rec2020-D60 in Rec2020-D65,

  ACES 2.0 - Test View,

  ACES 1.0 - SDR Video,
  ACES 1.0 - SDR Video (D60 sim on D65),
  ACES 1.1 - SDR Video (P3 lim),
  ACES 1.1 - SDR Video (Rec.709 lim),
  ACES 1.1 - HDR Video (1000 nits & Rec.2020 lim),
  ACES 1.1 - HDR Video (2000 nits & Rec.2020 lim),
  ACES 1.1 - HDR Video (4000 nits & Rec.2020 lim),
  ACES 1.1 - HDR Video (1000 nits & P3 lim),
  ACES 1.1 - HDR Video (2000 nits & P3 lim),
  ACES 1.1 - HDR Video (4000 nits & P3 lim),
  ACES 1.0 - SDR Cinema,
  ACES 1.1 - SDR Cinema (Rec.709 lim),
  ACES 1.0 - SDR Cinema (D60 sim on DCI),
  ACES 1.1 - SDR Cinema (D60 sim on D65),
  ACES 1.1 - SDR Cinema (D65 sim on DCI),
  ACES 1.1 - HDR Cinema (108 nits & P3 lim),

  Un-tone-mapped,
  Raw
]

inactive_colorspaces: [
  CIE-XYZ-D65,
  sRGB - Display,
  sRGB G22 - Display,
  Display P3 - Display,
  Rec.1886 Rec.709 - Display,
  Rec.1886 Rec.2020 - Display,
  Rec.2100-HLG - Display,
  Rec.2100-PQ - Display,
  ST2084-P3-D65 - Display,
  P3-D60 - Display,
  P3-D65 - Display,
  P3-DCI - Display,
  DCDM - Display,
  DCDM HDR - Display
]

looks:
  - !<Look>
    name: ACES 1.3 Reference Gamut Compression
    process_space: ACES2065-1
    description: |
      LMT (applied in ACES2065-1) to compress scene-referred values from common cameras into the AP1 gamut

      ACEStransformID: urn:ampas:aces:transformId:v1.5:LMT.Academy.ReferenceGamutCompress.a1.v1.0

      AMF Components
      --------------
      ACEStransformID: urn:ampas:aces:transformId:v1.5:InvLMT.Academy.ReferenceGamutCompress.a1.v1.0
    transform: !<BuiltinTransform> {style: ACES-LMT - ACES 1.3 Reference Gamut Compression}


default_view_transform: Un-tone-mapped

view_transforms:
  - !<ViewTransform>
    name: ACES 2.0 - SDR 100nit REC709
    from_scene_reference: !<BuiltinTransform> {style: ACES-OUTPUT - ACES2065-1_to_CIE-XYZ-D65 - SDR-100nit-REC709_2.0}
  - !<ViewTransform>
    name: ACES 2.0 - SDR 100nit P3-D65
    from_scene_reference: !<BuiltinTransform> {style: ACES-OUTPUT - ACES2065-1_to_CIE-XYZ-D65 - SDR-100nit-P3-D65_2.0}
  - !<ViewTransform>
    name: ACES 2.0 - HDR 108nit P3-D65
    from_scene_reference: !<BuiltinTransform> {style: ACES-OUTPUT - ACES2065-1_to_CIE-XYZ-D65 - HDR-108nit-P3-D65_2.0}
  - !<ViewTransform>
    name: ACES 2.0 - HDR 300nit P3-D65
    from_scene_reference: !<BuiltinTransform> {style: ACES-OUTPUT - ACES2065-1_to_CIE-XYZ-D65 - HDR-300nit-P3-D65_2.0}
  - !<ViewTransform>
    name: ACES 2.0 - HDR 500nit P3-D65
    from_scene_reference: !<BuiltinTransform> {style: ACES-OUTPUT - ACES2065-1_to_CIE-XYZ-D65 - HDR-500nit-P3-D65_2.0}
  - !<ViewTransform>
    name: ACES 2.0 - HDR 1000nit P3-D65
    from_scene_reference: !<BuiltinTransform> {style: ACES-OUTPUT - ACES2065-1_to_CIE-XYZ-D65 - HDR-1000nit-P3-D65_2.0}
  - !<ViewTransform>
    name: ACES 2.0 - HDR 2000nit P3-D65
    from_scene_reference: !<BuiltinTransform> {style: ACES-OUTPUT - ACES2065-1_to_CIE-XYZ-D65 - HDR-2000nit-P3-D65_2.0}
  - !<ViewTransform>
    name: ACES 2.0 - HDR 4000nit P3-D65
    from_scene_reference: !<BuiltinTransform> {style: ACES-OUTPUT - ACES2065-1_to_CIE-XYZ-D65 - HDR-4000nit-P3-D65_2.0}
  - !<ViewTransform>
    name: ACES 2.0 - HDR 500nit Rec2020
    from_scene_reference: !<BuiltinTransform> {style: ACES-OUTPUT - ACES2065-1_to_CIE-XYZ-D65 - HDR-500nit-Rec2020_2.0}
  - !<ViewTransform>
    name: ACES 2.0 - HDR 1000nit Rec2020
    from_scene_reference: !<BuiltinTransform> {style: ACES-OUTPUT - ACES2065-1_to_CIE-XYZ-D65 - HDR-1000nit-Rec2020_2.0}
  - !<ViewTransform>
    name: ACES 2.0 - HDR 2000nit Rec2020
    from_scene_reference: !<BuiltinTransform> {style: ACES-OUTPUT - ACES2065-1_to_CIE-XYZ-D65 - HDR-2000nit-Rec2020_2.0}
  - !<ViewTransform>
    name: ACES 2.0 - HDR 4000nit Rec2020
    from_scene_reference: !<BuiltinTransform> {style: ACES-OUTPUT - ACES2065-1_to_CIE-XYZ-D65 - HDR-4000nit-Rec2020_2.0}

  - !<ViewTransform>
    name: ACES 2.0 - SDR 100nit Rec709-D60 in P3-D65
    from_scene_reference: !<BuiltinTransform> {style: ACES-OUTPUT - ACES2065-1_to_CIE-XYZ-D65 - SDR-100nit-REC709-D60-in-P3-D65_2.0}
  - !<ViewTransform>
    name: ACES 2.0 - SDR 100nit Rec709-D60 in Rec709-D65
    from_scene_reference: !<BuiltinTransform> {style: ACES-OUTPUT - ACES2065-1_to_CIE-XYZ-D65 - SDR-100nit-REC709-D60-in-REC709-D65_2.0}
  - !<ViewTransform>
    name: ACES 2.0 - SDR 100nit Rec709-D60 in Rec2020-D65
    from_scene_reference: !<BuiltinTransform> {style: ACES-OUTPUT - ACES2065-1_to_CIE-XYZ-D65 - SDR-100nit-REC709-D60-in-REC2020-D65_2.0}
  - !<ViewTransform>
    name: ACES 2.0 - SDR 100nit P3-D60 in P3-D65
    from_scene_reference: !<BuiltinTransform> {style: ACES-OUTPUT - ACES2065-1_to_CIE-XYZ-D65 - SDR-100nit-P3-D60-in-P3-D65_2.0}
  - !<ViewTransform>
    name: ACES 2.0 - SDR 100nit P3-D60 in XYZ-E
    from_scene_reference: !<BuiltinTransform> {style: ACES-OUTPUT - ACES2065-1_to_CIE-XYZ-D65 - SDR-100nit-P3-D60-in-XYZ-E_2.0}
  - !<ViewTransform>
    name: ACES 2.0 - HDR 108nit P3-D60 in P3-D65
    from_scene_reference: !<BuiltinTransform> {style: ACES-OUTPUT - ACES2065-1_to_CIE-XYZ-D65 - HDR-108nit-P3-D60-in-P3-D65_2.0}
  - !<ViewTransform>
    name: ACES 2.0 - HDR 300nit P3-D60 in XYZ-E
    from_scene_reference: !<BuiltinTransform> {style: ACES-OUTPUT - ACES2065-1_to_CIE-XYZ-D65 - HDR-300nit-P3-D60-in-XYZ-E_2.0}
  - !<ViewTransform>
    name: ACES 2.0 - HDR 500nit P3-D60 in P3-D65
    from_scene_reference: !<BuiltinTransform> {style: ACES-OUTPUT - ACES2065-1_to_CIE-XYZ-D65 - HDR-500nit-P3-D60-in-P3-D65_2.0}
  - !<ViewTransform>
    name: ACES 2.0 - HDR 500nit P3-D60 in Rec2020-D65
    from_scene_reference: !<BuiltinTransform> {style: ACES-OUTPUT - ACES2065-1_to_CIE-XYZ-D65 - HDR-500nit-P3-D60-in-REC2020-D65_2.0}
  - !<ViewTransform>
    name: ACES 2.0 - HDR 1000nit P3-D60 in P3-D65
    from_scene_reference: !<BuiltinTransform> {style: ACES-OUTPUT - ACES2065-1_to_CIE-XYZ-D65 - HDR-1000nit-P3-D60-in-P3-D65_2.0}
  - !<ViewTransform>
    name: ACES 2.0 - HDR 1000nit P3-D60 in Rec2020-D65
    from_scene_reference: !<BuiltinTransform> {style: ACES-OUTPUT - ACES2065-1_to_CIE-XYZ-D65 - HDR-1000nit-P3-D60-in-REC2020-D65_2.0}
  - !<ViewTransform>
    name: ACES 2.0 - HDR 2000nit P3-D60 in P3-D65
    from_scene_reference: !<BuiltinTransform> {style: ACES-OUTPUT - ACES2065-1_to_CIE-XYZ-D65 - HDR-2000nit-P3-D60-in-P3-D65_2.0}
  - !<ViewTransform>
    name: ACES 2.0 - HDR 2000nit P3-D60 in Rec2020-D65
    from_scene_reference: !<BuiltinTransform> {style: ACES-OUTPUT - ACES2065-1_to_CIE-XYZ-D65 - HDR-2000nit-P3-D60-in-REC2020-D65_2.0}
  - !<ViewTransform>
    name: ACES 2.0 - HDR 4000nit P3-D60 in P3-D65
    from_scene_reference: !<BuiltinTransform> {style: ACES-OUTPUT - ACES2065-1_to_CIE-XYZ-D65 - HDR-4000nit-P3-D60-in-P3-D65_2.0}
  - !<ViewTransform>
    name: ACES 2.0 - HDR 4000nit P3-D60 in Rec2020-D65
    from_scene_reference: !<BuiltinTransform> {style: ACES-OUTPUT - ACES2065-1_to_CIE-XYZ-D65 - HDR-4000nit-P3-D60-in-REC2020-D65_2.0}
  - !<ViewTransform>
    name: ACES 2.0 - HDR 500nit Rec2020-D60 in Rec2020-D65
    from_scene_reference: !<BuiltinTransform> {style: ACES-OUTPUT - ACES2065-1_to_CIE-XYZ-D65 - HDR-500nit-REC2020-D60-in-REC2020-D65_2.0}
  - !<ViewTransform>
    name: ACES 2.0 - HDR 1000nit Rec2020-D60 in Rec2020-D65
    from_scene_reference: !<BuiltinTransform> {style: ACES-OUTPUT - ACES2065-1_to_CIE-XYZ-D65 - HDR-1000nit-REC2020-D60-in-REC2020-D65_2.0}
  - !<ViewTransform>
    name: ACES 2.0 - HDR 2000nit Rec2020-D60 in Rec2020-D65
    from_scene_reference: !<BuiltinTransform> {style: ACES-OUTPUT - ACES2065-1_to_CIE-XYZ-D65 - HDR-2000nit-REC2020-D60-in-REC2020-D65_2.0}
  - !<ViewTransform>
    name: ACES 2.0 - HDR 4000nit Rec2020-D60 in Rec2020-D65
    from_scene_reference: !<BuiltinTransform> {style: ACES-OUTPUT - ACES2065-1_to_CIE-XYZ-D65 - HDR-4000nit-REC2020-D60-in-REC2020-D65_2.0}

  - !<ViewTransform>
    name: ACES 2.0 - Test View
    from_scene_reference: !<GroupTransform>
      children:
        # - !<BuiltinTransform> {style: DISPLAY - CIE-XYZ-D65_to_DisplayP3}
        # - !<ExponentWithLinearTransform> {gamma: 2.4, offset: 0.055}
        # - !<ExponentTransform> {value: 2.2, style: pass_thru, direction: inverse}
        - !<BuiltinTransform> {style: ACES-OUTPUT - ACES2065-1_to_CIE-XYZ-D65 - SDR-100nit-REC709-D60-in-REC709-D65_2.0, direction: inverse}
        - !<BuiltinTransform> {style: ACES-OUTPUT - ACES2065-1_to_CIE-XYZ-D65 - HDR-4000nit-REC2020-D60-in-REC2020-D65_2.0}
        - !<BuiltinTransform> {style: ACES-OUTPUT - ACES2065-1_to_CIE-XYZ-D65 - HDR-4000nit-P3-D60-in-P3-D65_2.0}

  - !<ViewTransform>
    name: ACES 1.0 - SDR Video
    description: |
      Component of ACES Output Transforms for SDR D65 video

      ACEStransformID: urn:ampas:aces:transformId:v1.5:ODT.Academy.RGBmonitor_100nits_dim.a1.0.3
      ACEStransformID: urn:ampas:aces:transformId:v1.5:ODT.Academy.DisplayP3_dim.a1.0.0
      ACEStransformID: urn:ampas:aces:transformId:v1.5:ODT.Academy.Rec709_100nits_dim.a1.0.3
      ACEStransformID: urn:ampas:aces:transformId:v1.5:ODT.Academy.Rec2020_100nits_dim.a1.0.3

      AMF Components
      --------------
      ACEStransformID: urn:ampas:aces:transformId:v1.5:InvODT.Academy.RGBmonitor_100nits_dim.a1.0.3
      ACEStransformID: urn:ampas:aces:transformId:v1.5:InvODT.Academy.DisplayP3_dim.a1.0.0
      ACEStransformID: urn:ampas:aces:transformId:v1.5:InvODT.Academy.Rec709_100nits_dim.a1.0.3
      ACEStransformID: urn:ampas:aces:transformId:v1.5:InvODT.Academy.Rec2020_100nits_dim.a1.0.3
    from_scene_reference: !<BuiltinTransform> {style: ACES-OUTPUT - ACES2065-1_to_CIE-XYZ-D65 - SDR-VIDEO_1.0}

  - !<ViewTransform>
    name: ACES 1.0 - SDR Video (D60 sim on D65)
    description: |
      Component of ACES Output Transforms for SDR D65 video simulating D60 white

      ACEStransformID: urn:ampas:aces:transformId:v1.5:ODT.Academy.RGBmonitor_D60sim_100nits_dim.a1.0.3
