tests/data/files/resolve_cube_1d3d.cube
# Comment 1
# Comment 2
LUT_1D_SIZE 6
LUT_1D_INPUT_RANGE -0.5 1.5
LUT_3D_SIZE 3
LUT_3D_INPUT_RANGE 0.25 0.75

1.0 1.0 1.0
0.8 0.8 0.8
0.6 0.6 0.6
0.4 0.4 0.4
0.2 0.2 0.2
0.0 0.0 0.0
1.0 1.0 1.0
0.5 1.0 1.0
0.0 1.0 1.0
1.0 0.5 1.0
0.5 0.5 1.0
0.0 0.5 1.0
1.0 0.0 1.0
0.5 0.0 1.0
0.0 0.0 1.0
1.0 1.0 0.5
0.5 1.0 0.5
0.0 1.0 0.5
1.0 0.5 0.5
0.5 0.5 0.5
0.0 0.5 0.5
1.0 0.0 0.5
0.5 0.0 0.5
0.0 0.0 0.5
1.0 1.0 0.0
0.5 1.0 0.0
0.0 1.0 0.0
1.0 0.5 0.0
0.5 0.5 0.0
0.0 0.5 0.0
1.0 0.0 0.0
0.5 0.0 0.0
0.0 0.0 0.0